X: 6273
T: Carolan's Quarrel With The Landlady
R: jig
M: 6/8
K: Eminor
B/A/|GAB g2g/a/|b/a/g/f/e/d/ g2g/f/|e>fe/d/ e>fg/f/|
e/d/c/B/A/G/ A c/B/A/|GAB g2g/a/|b/a/g/f/e/d/ g2g/f/|
ef/e/d/B/ de/d/B/A/|B3f/g3f|ef/e/d/B/ de/d/B/A/|Bee e2|
f/g/a/|bgb b/a/g/f/e/d/|dfg a2a/4b/4c'/|b/a/g/f/e/d/ e>fg/f/|
e/d/c/B/A/G/ A c/B/A/|GAB g2g/a/|b/a/g/f/e/d/ g2g/f/|
ef/e/d/B/ de/d/B/A/|B3f/g3f|ef/e/d/B/ de/d/B/A/|Bee e2|

